X: 11661
T: SORIDH LEIS AN T' SEANN' BHLEAN'
T: "Hogmanay,or Adieu to the Auld Year."
Q: "Strathspey and Song."
%R: air, strathspey
B: W. Hamilton "Universal Tune-Book" Vol. 1 Glasgow 1844 p.166 #1
S: http://imslp.org/wiki/Hamilton's_Universal_Tune-Book_(Various)
Z: 2016 John Chambers <jc:trillian.mit.edu>
M: C
L: 1/16
K: A
%%slurgraces yes
%%graceslurs yes
% - - - - - - - - - - - - - - - - - - - - - - - - -
E2 |\
C3EA3E CCC2 C4 | C3EAc3 B3B,B,E3 |\
C3EA3E CCC2 C3c | edcB A3E C4 C2 :|\
e2 |\
fedc ac3 ec3e3a | {f}e3ca3g/a/ bB3Ba3 |
fedc a3c {f}e3cfa3 | gb3a3f c4 ca3 |\
fedc ac3 ec3e3a | e3ca3g/a/ b3BB2cd |\
ec3BG3 A3cGB3 | F3AEA3 C4 C2 |]
% - - - - - - - - - - - - - - - - - - - - - - - - -

%%sep 1 1 500
%%sep 1 1 500

